src/assets/tokens/QRDO.svg

<svg fill="none" height="49" viewBox="0 0 49 49" width="49" xmlns="http://www.w3.org/2000/svg"><path d="m42.9238 40.6632c3.9271-4.4709 6.0871-10.2156 6.0762-16.1599.0011-1.6596-.1653-3.315-.4967-4.9413-.0319-.2098-.0801-.4169-.1441-.6193 0 .0231.0166.0446.0232.0677-2.4834-10.88833-12.2367-19.0104-23.8791-19.0104-13.5315 0-24.50329617 10.9693-24.50329617 24.5033-.00081109 1.4557.12716817 2.9086.38244917 4.3418-.001262.0037-.001262.0078 0 .0115.047608.2258.115202.4468.201987.6606-.088584-.2198-.157829-.4469-.206953-.6787 2.048013 11.4614 12.066213 20.1615 24.115913 20.1615 4.2382.0054 8.4043-1.0934 12.086-3.1874l1.3527 1.6713c.3373.4146.7532.7589 1.224 1.0131s.9871.4133 1.5196.4684c.5324.0551 1.0705.0049 1.5835-.1476.513-.1524.9909-.4042 1.4063-.741.8421-.6814 1.3787-1.6683 1.492-2.744.1133-1.0756-.2059-2.1522-.8877-2.9933zm4.7053-23.083c-.0695-.0842-.1424-.1651-.2169-.2444.0745.0776.1474.1602.2169.2444zm.6623 1.1825c-.0183-.0479-.0365-.0958-.0563-.142.0265.0478.0447.1023.0629.142zm-.1308-.3171c-.0216-.0462-.0447-.0925-.0696-.1404.0315.0479.0547.0875.0762.1404zm-.1557-.3039c-.0265-.0462-.0546-.0908-.0844-.1371.0364.0463.0646.0909.0911.1371zm-.1788-.289c-.0331-.0462-.0695-.0925-.1043-.1387.0414.0462.0778.0925.1109.1387zm-3.0149-1.7638c-.1208-.0099-.2417-.0165-.3659-.0165.1308.0082.2517.0082.3725.0165zm2.4984 1.1478c-.0481-.0462-.0944-.0941-.1457-.1387.0447.0446.0976.0925.1457.1387zm-.2666-.2345c-.0497-.0408-.0993-.0804-.149-.1189.053.0385.1026.0781.149.1189zm-.2765-.2081c-.0513-.0347-.1043-.071-.1573-.104.058.033.111.0693.1623.104zm-.2914-.1833c-.0546-.0314-.1109-.0611-.1655-.0909.0596.0298.1159.0562.1705.0909zm-.6275-.2973c-.0629-.0231-.1274-.0429-.1904-.0627.0613.0264.1325.0462.1954.0693zm-.3311-.1057c-.0679-.0182-.1374-.033-.2069-.0479.0778.0215.1407.0364.2086.0545zm-.3444-.0776c-.0778-.0132-.1572-.0231-.2367-.033.0811.0165.1606.0264.2384.0396zm-44.436997 13.7074c-.046358-.0908-.086093-.1833-.125828-.2758.041391.0975.076158.19.127483.2808zm.165563.2973c-.033113-.0545-.061259-.1106-.092716-.1651.033112.0594.061258.1156.09437.1701zm36.768134 4.0396-1.7317-2.147v-.0082c-.3384-.4144-.7553-.7581-1.2269-1.0115-.4717-.2535-.9888-.4116-1.5218-.4655-.533-.0538-1.0714-.0023-1.5845.1517-.513.1539-.9905.4073-1.4052.7456-.841.6821-1.3768 1.6689-1.49 2.7442-.1133 1.0752.2052 2.1515.8856 2.9931l1.76 2.1717c-2.2471 1.036-4.7008 1.5488-7.1758 1.4995s-4.9063-.6594-7.11-1.7841c-2.2038-1.1246-4.1223-2.7345-5.6105-4.7077-1.4882-1.9733-2.50705-4.2582-2.97953-6.6821-.91179-4.2252-.10358-8.6387 2.24683-12.2695 2.3504-3.6308 6.0505-6.18154 10.2863-7.09105 4.2358-.90952 8.6602-.10333 12.3001 2.24125 3.6399 2.3445 6.197 6.0354 7.1088 10.2606 0 0 0-.0149 0-.0231.0199.1288.0447.256.0762.3798.4667 2.2426.4566 4.558-.0296 6.7965-.4863 2.2385-1.4378 4.3504-2.7933 6.1992zm2.7037-13.7174v.0859c.0066-.0297.0033-.0578.0016-.0859z" fill="#000"/></svg>

<svg width="49" height="49" viewBox="0 0 49 49" fill="none" xmlns="http://www.w3.org/2000/svg">
<path d="M42.9238 40.6632C46.8509 36.1923 49.0109 30.4476 49 24.5033C49.0011 22.8437 48.8347 21.1883 48.5033 19.562C48.4714 19.3522 48.4232 19.1451 48.3592 18.9427C48.3592 18.9658 48.3758 18.9873 48.3824 19.0104C45.899 8.12207 36.1457 0 24.5033 0C10.9718 0 3.83113e-06 10.9693 3.83113e-06 24.5033C-0.000807264 25.959 0.127172 27.4119 0.382453 28.8451C0.381191 28.8488 0.381191 28.8529 0.382453 28.8566C0.430061 29.0824 0.497655 29.3034 0.58444 29.5172C0.495856 29.2974 0.426611 29.0703 0.377487 28.8385C2.4255 40.2999 12.4437 49 24.4934 49C28.7316 49.0054 32.8977 47.9066 36.5794 45.8126L37.9321 47.4839C38.2694 47.8985 38.6853 48.2428 39.1561 48.497C39.6269 48.7512 40.1432 48.9103 40.6757 48.9654C41.2081 49.0205 41.7462 48.9703 42.2592 48.8178C42.7722 48.6654 43.2501 48.4136 43.6655 48.0768C44.5076 47.3954 45.0442 46.4085 45.1575 45.3328C45.2708 44.2572 44.9516 43.1806 44.2698 42.3395L42.9238 40.6632ZM47.6291 17.5802C47.5596 17.496 47.4867 17.4151 47.4122 17.3358C47.4867 17.4134 47.5596 17.496 47.6291 17.5802ZM48.2914 18.7627C48.2731 18.7148 48.2549 18.6669 48.2351 18.6207C48.2616 18.6685 48.2798 18.723 48.298 18.7627H48.2914ZM48.1606 18.4456C48.139 18.3994 48.1159 18.3531 48.091 18.3052C48.1225 18.3531 48.1457 18.3927 48.1672 18.4456H48.1606ZM48.0049 18.1417C47.9784 18.0955 47.9503 18.0509 47.9205 18.0046C47.9569 18.0509 47.9851 18.0955 48.0116 18.1417H48.0049ZM47.8261 17.8527C47.793 17.8065 47.7566 17.7602 47.7218 17.714C47.7632 17.7602 47.7996 17.8065 47.8327 17.8527H47.8261ZM44.8112 16.0889C44.6904 16.079 44.5695 16.0724 44.4453 16.0724C44.5761 16.0806 44.697 16.0806 44.8178 16.0889H44.8112ZM47.3096 17.2367C47.2615 17.1905 47.2152 17.1426 47.1639 17.098C47.2086 17.1426 47.2615 17.1905 47.3096 17.2367ZM47.043 17.0022C46.9933 16.9614 46.9437 16.9218 46.894 16.8833C46.947 16.9218 46.9966 16.9614 47.043 17.0022ZM46.7665 16.7941C46.7152 16.7594 46.6622 16.7231 46.6092 16.6901C46.6672 16.7231 46.7202 16.7594 46.7715 16.7941H46.7665ZM46.4751 16.6108C46.4205 16.5794 46.3642 16.5497 46.3096 16.5199C46.3692 16.5497 46.4255 16.5761 46.4801 16.6108H46.4751ZM45.8476 16.3135C45.7847 16.2904 45.7202 16.2706 45.6572 16.2508C45.7185 16.2772 45.7897 16.297 45.8526 16.3201L45.8476 16.3135ZM45.5165 16.2078C45.4486 16.1896 45.3791 16.1748 45.3096 16.1599C45.3874 16.1814 45.4503 16.1963 45.5182 16.2144L45.5165 16.2078ZM45.1721 16.1302C45.0943 16.117 45.0149 16.1071 44.9354 16.0972C45.0165 16.1137 45.096 16.1236 45.1738 16.1368L45.1721 16.1302ZM0.735103 29.8376C0.688745 29.7468 0.64901 29.6543 0.609275 29.5618C0.650666 29.6593 0.685433 29.7518 0.736758 29.8426L0.735103 29.8376ZM0.900666 30.1349C0.867553 30.0804 0.839407 30.0243 0.80795 29.9698C0.841062 30.0292 0.869208 30.0854 0.90232 30.1399L0.900666 30.1349ZM37.6688 34.1745L35.9371 32.0275V32.0193C35.5987 31.6049 35.1818 31.2612 34.7102 31.0078C34.2385 30.7543 33.7214 30.5962 33.1884 30.5423C32.6554 30.4885 32.117 30.54 31.6039 30.694C31.0909 30.8479 30.6134 31.1013 30.1987 31.4396C29.3577 32.1217 28.8219 33.1085 28.7087 34.1838C28.5954 35.259 28.9139 36.3353 29.5943 37.1769L31.3543 39.3486C29.1072 40.3846 26.6535 40.8974 24.1785 40.8481C21.7035 40.7988 19.2722 40.1887 17.0685 39.064C14.8647 37.9394 12.9462 36.3295 11.458 34.3563C9.9698 32.383 8.95095 30.0981 8.47847 27.6742C7.56668 23.449 8.37489 19.0355 10.7253 15.4047C13.0757 11.7739 16.7758 9.22316 21.0116 8.31365C25.2474 7.40413 29.6718 8.21032 33.3117 10.5549C36.9516 12.8994 39.5087 16.5903 40.4205 20.8155C40.4205 20.8155 40.4205 20.8006 40.4205 20.7924C40.4404 20.9212 40.4652 21.0484 40.4967 21.1722C40.9634 23.4148 40.9533 25.7302 40.4671 27.9687C39.9808 30.2072 39.0293 32.3191 37.6738 34.1679L37.6688 34.1745ZM40.3725 20.4571C40.3725 20.4852 40.3725 20.5133 40.3725 20.543C40.3791 20.5133 40.3758 20.4852 40.3741 20.4571H40.3725Z" fill="black"></path>
</svg>
